svgs/270B-1F3FB.svg

<svg xmlns="http://www.w3.org/2000/svg" xmlns:xlink="http://www.w3.org/1999/xlink" preserveAspectRatio="none" viewBox="0 0 72 72"><defs><path id="a" fill="#FADCBC" d="M86.45 15.35q-1.6-2.55-4.3-2.85-3-.35-4.95 1.2-2.1 1.7-2.45 5.25l.1 36.2q0 1.55-1.3 1.7-1.35.15-1.45-1.4l-.5-45.05q.05-3.4-2-5.9Q67.5 2 64.55 2 61.6 2 59.7 4.2q-1.95 2.25-2.05 5.7.15 32 .1 44.4 0 1.7-1.4 1.7-.3.05-.6-.15-.65-.35-.65-1.35l-.45-38.1q-.1-3.35-1.55-5.5-1.7-2.35-4.7-2.4-3.05-.05-5.15 2.05-2.2 2.2-2.05 5.55l.25 40.25-.2.65q-.4.7-1.25.7-.95 0-1.3-.8l-.15-.8q0-6.5-.1-13.2-.1-13.4-.25-14.3-1.2-5.75-6.7-5.5-6.1.3-6.6 7.9.2 42 .3 44.25l.75 10.1q1 11.2 2.55 16.65 1.4 4.95 2.95 7.75 2.35 4.45 5.7 7.65 3.65 3.4 8.7 5.6 4.75 2 10.15 2.6l5 .35q2.3.15 5.05.05 4.65-.15 9.7-1.1 4.85-.95 8.8-2.55 3.95-1.5 7.3-3.9 3-2.05 5.25-4.6 1.55-1.75 3-4.4 1.05-1.9 1.35-3.1l.35-1.1L108.35 90v.05q5.3-12.55 10.6-25.6.75-1.65-.2-3.2-.9-1.6-2.8-1.85-5.4-.7-9.6 1.65-4.1 2.25-6.4 7.05L93.8 82.65q-.45 1.3-2 1.3-1.5-.05-1.7-1.45-.45-3.55-.7-11.8l-.1-7.6q-.15-3.2-.65-22.3-.45-18.75-.5-19.65-.25-3.5-1.7-5.8z"/><path id="b" fill="#DBA689" d="M89.4 74v-3.4q-13.5 1.25-21.95 11.75-4.2 5.25-5.75 10.25-.95 2.45-.55 3.6.2.55.55.65.9.45 1.65-.65l.6-1.25q4.3-12.9 15.3-18.2Q84.75 74.1 89.4 74z"/></defs><use transform="scale(.5625)" xlink:href="#a"/><use transform="scale(.5625)" xlink:href="#b"/></svg>

<svg xmlns="http://www.w3.org/2000/svg" version="1.1" xmlns:xlink="http://www.w3.org/1999/xlink" preserveAspectRatio="none" x="0px" y="0px" width="72px" height="72px" viewBox="0 0 72 72">
<defs>
<g id="Layer0_0_MEMBER_0_FILL">
<path fill="#FADCBC" stroke="none" d="
M 86.45 15.35
Q 84.85 12.8 82.15 12.5 79.15 12.15 77.2 13.7 75.1 15.4 74.75 18.95
L 74.85 55.15
Q 74.85 56.7 73.55 56.85 72.2 57 72.1 55.45
L 71.6 10.4
Q 71.65 7 69.6 4.5 67.5 2 64.55 2 61.6 2 59.7 4.2 57.75 6.45 57.65 9.9 57.8 41.9 57.75 54.3 57.75 56 56.35 56 56.05 56.05 55.75 55.85 55.1 55.5 55.1 54.5
L 54.65 16.4
Q 54.55 13.05 53.1 10.9 51.4 8.55 48.4 8.5 45.35 8.45 43.25 10.55 41.05 12.75 41.2 16.1
L 41.45 56.35 41.25 57
Q 40.85 57.7 40 57.7 39.05 57.7 38.7 56.9
L 38.55 56.1
Q 38.55 49.6 38.45 42.9 38.35 29.5 38.2 28.6 37 22.85 31.5 23.1 25.4 23.4 24.9 31 25.1 73 25.2 75.25
L 25.95 85.35
Q 26.95 96.55 28.5 102 29.9 106.95 31.45 109.75 33.8 114.2 37.15 117.4 40.8 120.8 45.85 123 50.6 125 56 125.6
L 61 125.95
Q 63.3 126.1 66.05 126 70.7 125.85 75.75 124.9 80.6 123.95 84.55 122.35 88.5 120.85 91.85 118.45 94.85 116.4 97.1 113.85 98.65 112.1 100.1 109.45 101.15 107.55 101.45 106.35
L 101.8 105.25 108.35 90 108.35 90.05
Q 113.65 77.5 118.95 64.45 119.7 62.8 118.75 61.25 117.85 59.65 115.95 59.4 110.55 58.7 106.35 61.05 102.25 63.3 99.95 68.1
L 93.8 82.65
Q 93.35 83.95 91.8 83.95 90.3 83.9 90.1 82.5 89.65 78.95 89.4 70.7
L 89.3 63.1
Q 89.15 59.9 88.65 40.8 88.2 22.05 88.15 21.15 87.9 17.65 86.45 15.35 Z"/>
</g>

<g id="Layer0_0_MEMBER_1_FILL">
<path fill="#DBA689" stroke="none" d="
M 89.4 74
L 89.4 70.6
Q 75.9 71.85 67.45 82.35 63.25 87.6 61.7 92.6 60.75 95.05 61.15 96.2 61.35 96.75 61.7 96.85 62.6 97.3 63.35 96.2
L 63.95 94.95
Q 68.25 82.05 79.25 76.75 84.75 74.1 89.4 74 Z"/>
</g>
</defs>

<g id="Layer_1">
<g transform="matrix( 0.5625, 0, 0, 0.5625, 0,0) ">
<use xlink:href="#Layer0_0_MEMBER_0_FILL"/>
</g>

<g transform="matrix( 0.5625, 0, 0, 0.5625, 0,0) ">
<use xlink:href="#Layer0_0_MEMBER_1_FILL"/>
</g>
</g>
</svg>
